icons/library.svg

<svg fill="none" stroke="currentColor" stroke-linecap="round" stroke-linejoin="round" stroke-width="1.5" viewBox="0 0 24 24"><path d="M10.778 4.916v14.225c0 1.682-.433 3.048-.966 3.048H4.705c-.533 0-.966-1.366-.966-3.048V4.916c0-1.682.433-3.048.966-3.048h5.107c.533 0 .966 1.366.966 3.048m-5.24 2.625v8.974H8.98V7.541z" transform="matrix(.834 0 0 .2644 -2.386 17.068)"/><path d="M10.778 2.842v18.373c0 .537-.473.974-1.056.974H4.795c-.583 0-1.056-.437-1.056-.974V2.842c0-.537.473-.974 1.056-.974h4.927c.583 0 1.056.437 1.056.974m-5.24.686v17.001H8.98V3.528z" transform="matrix(.834 0 0 .90383 -2.386 2.916)"/><path d="M10.778 4.916v14.225c0 1.682-.436 3.048-.972 3.048H4.712c-.537 0-.973-1.366-.973-3.048V4.916c0-1.682.436-3.048.973-3.048h5.094c.536 0 .972 1.366.972 3.048m-5.24 2.588v9.049H8.98V7.504z" transform="matrix(.834 0 0 .26617 4.076 17.065)"/><path d="M10.778 2.691v18.675c0 .454-.473.823-1.056.823H4.795c-.583 0-1.056-.369-1.056-.823V2.691c0-.454.473-.823 1.056-.823h4.927c.583 0 1.056.369 1.056.823m-5.24.579v17.517H8.98V3.27z" transform="matrix(.834 0 0 1.06998 4.076 -.77)"/><path d="M10.778 4.916v14.225c0 1.682-.398 3.048-.89 3.048H4.629c-.491 0-.89-1.366-.89-3.048V4.916c0-1.682.399-3.048.89-3.048h5.259c.492 0 .89 1.366.89 3.048m-5.24 3.111v8.003H8.98V8.027z" transform="matrix(.80559 -.21586 .06303 .23525 10.355 5.435)"/><path d="M10.778 2.825v18.407c0 .528-.473.957-1.056.957H4.795c-.583 0-1.056-.429-1.056-.957V2.825c0-.528.473-.957 1.056-.957h4.927c.583 0 1.056.429 1.056.957m-5.24.673v17.061H8.98V3.498z" transform="matrix(.80559 -.21586 .2382 .88895 10.032 4.23)"/><path d="M10.778 4.916v14.225c0 1.682-.398 3.048-.89 3.048H4.629c-.491 0-.89-1.366-.89-3.048V4.916c0-1.682.399-3.048.89-3.048h5.259c.492 0 .89 1.366.89 3.048m-5.24 3.112v8.001H8.98V8.028z" transform="matrix(.80559 -.21586 .06302 .2352 13.907 18.69)"/></svg>

<?xml version="1.0" encoding="UTF-8" standalone="no"?>
<!DOCTYPE svg PUBLIC "-//W3C//DTD SVG 1.1//EN" "http://www.w3.org/Graphics/SVG/1.1/DTD/svg11.dtd">
<svg width="100%" height="100%" viewBox="0 0 24 24" version="1.1" xmlns="http://www.w3.org/2000/svg" xmlns:xlink="http://www.w3.org/1999/xlink" xml:space="preserve" xmlns:serif="http://www.serif.com/" style="fill-rule:evenodd;clip-rule:evenodd;stroke-linejoin:round;stroke-miterlimit:2;">
    <g>
        <g transform="matrix(1,0,0,1,0,0.499073)">
            <g transform="matrix(0.834008,0,0,0.264391,-2.386481,16.569225)">
                <path d="M10.778,4.916L10.778,19.141C10.778,20.823 10.345,22.189 9.812,22.189L4.705,22.189C4.172,22.189 3.739,20.823 3.739,19.141L3.739,4.916C3.739,3.234 4.172,1.868 4.705,1.868L9.812,1.868C10.345,1.868 10.778,3.234 10.778,4.916ZM5.538,7.541L5.538,16.515L8.98,16.515L8.98,7.541L5.538,7.541Z" style="fill:white;"/>
            </g>
            <g transform="matrix(0.834008,0,0,0.903834,-2.386481,2.416848)">
                <path d="M10.778,2.842L10.778,21.215C10.778,21.752 10.305,22.189 9.722,22.189L4.795,22.189C4.212,22.189 3.739,21.752 3.739,21.215L3.739,2.842C3.739,2.305 4.212,1.868 4.795,1.868L9.722,1.868C10.305,1.868 10.778,2.305 10.778,2.842ZM5.538,3.528L5.538,20.529L8.98,20.529L8.98,3.528L5.538,3.528Z" style="fill:white;"/>
            </g>
            <g transform="matrix(0.834008,0,0,0.26617,4.075795,16.565903)">
                <path d="M10.778,4.916L10.778,19.141C10.778,20.823 10.342,22.189 9.806,22.189L4.712,22.189C4.175,22.189 3.739,20.823 3.739,19.141L3.739,4.916C3.739,3.234 4.175,1.868 4.712,1.868L9.806,1.868C10.342,1.868 10.778,3.234 10.778,4.916ZM5.538,7.504L5.538,16.553L8.98,16.553L8.98,7.504L5.538,7.504Z" style="fill:white;"/>
            </g>
            <g transform="matrix(0.834008,0,0,1.069981,4.075795,-1.26979)">
                <path d="M10.778,2.691L10.778,21.366C10.778,21.82 10.305,22.189 9.722,22.189L4.795,22.189C4.212,22.189 3.739,21.82 3.739,21.366L3.739,2.691C3.739,2.237 4.212,1.868 4.795,1.868L9.722,1.868C10.305,1.868 10.778,2.237 10.778,2.691ZM5.538,3.27L5.538,20.787L8.98,20.787L8.98,3.27L5.538,3.27Z" style="fill:white;"/>
            </g>
            <g transform="matrix(0.80559,-0.215857,0.063034,0.235247,10.354825,4.935482)">
                <path d="M10.778,4.916L10.778,19.141C10.778,20.823 10.38,22.189 9.888,22.189L4.629,22.189C4.138,22.189 3.739,20.823 3.739,19.141L3.739,4.916C3.739,3.234 4.138,1.868 4.629,1.868L9.888,1.868C10.38,1.868 10.778,3.234 10.778,4.916ZM5.538,8.027L5.538,16.03L8.98,16.03L8.98,8.027L5.538,8.027Z" style="fill:white;"/>
            </g>
            <g transform="matrix(0.80559,-0.215857,0.238192,0.888946,10.031836,3.730071)">
                <path d="M10.778,2.825L10.778,21.232C10.778,21.76 10.305,22.189 9.722,22.189L4.795,22.189C4.212,22.189 3.739,21.76 3.739,21.232L3.739,2.825C3.739,2.297 4.212,1.868 4.795,1.868L9.722,1.868C10.305,1.868 10.778,2.297 10.778,2.825ZM5.538,3.498L5.538,20.559L8.98,20.559L8.98,3.498L5.538,3.498Z" style="fill:white;"/>
            </g>
            <g transform="matrix(0.80559,-0.215857,0.063023,0.235205,13.906518,18.190581)">
                <path d="M10.778,4.916L10.778,19.141C10.778,20.823 10.38,22.189 9.888,22.189L4.629,22.189C4.138,22.189 3.739,20.823 3.739,19.141L3.739,4.916C3.739,3.234 4.138,1.868 4.629,1.868L9.888,1.868C10.38,1.868 10.778,3.234 10.778,4.916ZM5.538,8.028L5.538,16.029L8.98,16.029L8.98,8.028L5.538,8.028Z" style="fill:white;"/>
            </g>
        </g>
    </g>
</svg>
